client/src/assets/community/discord-dark.svg

<svg width="82" height="81" viewBox="0 0 82 81" fill="none" xmlns="http://www.w3.org/2000/svg">
<ellipse cx="56.4549" cy="24.998" rx="24.7605" ry="25" fill="#354039"/>
<path d="M73.1253 62.9948C78.289 58.5097 81.2128 52.5315 81.2128 46.3277C81.2128 39.7346 78.0458 33.5685 72.2951 28.9644C66.6981 24.4849 59.2897 22.0176 51.4336 22.0176C43.5776 22.0176 36.1692 24.4849 30.573 28.9647C24.8223 33.5685 21.6553 39.7346 21.6553 46.3277C21.6553 52.9208 24.8223 59.0868 30.573 63.691C36.1692 68.1708 43.5776 70.6379 51.4336 70.6379C52.4804 70.6379 53.5337 70.5929 54.5781 70.5034L56.3625 72.0107C62.5096 77.202 70.3709 80.0598 78.5049 80.0601H81.212V74.4443L80.4191 73.6718C77.2914 70.6146 74.8129 66.9864 73.1253 62.9948ZM59.9085 68.0229L56.3281 64.9986L55.1343 65.1412C53.9064 65.2875 52.6706 65.3609 51.4336 65.361C37.9995 65.361 27.0695 56.8226 27.0695 46.3277C27.0695 35.8327 37.9995 27.2942 51.4336 27.2942C64.8677 27.2942 75.7977 35.8325 75.7977 46.3277C75.7977 51.5564 73.1211 56.438 68.2608 60.0729L66.7016 61.2388L67.4211 63.2233C68.8954 67.2764 71.0624 71.0572 73.8305 74.4059C68.6756 73.5673 63.858 71.3586 59.9085 68.0229Z" fill="#8FF295"/>
<path d="M7.47589 50.6236C10.01 47.4974 11.9996 43.9866 13.3652 40.2315L14.0792 38.2569L12.5215 37.0917C7.9383 33.6643 5.41425 29.0641 5.41425 24.1385C5.41425 14.2409 15.7367 6.1887 28.4248 6.1887C37.759 6.1887 45.8125 10.5468 49.418 16.7914C50.0875 16.7597 50.7599 16.7419 51.4354 16.7419C52.792 16.7419 54.1362 16.806 55.468 16.9343C54.0746 13.4163 51.6548 10.2049 48.3279 7.54182C42.9878 3.26662 35.9202 0.912109 28.4248 0.912109C20.9295 0.912109 13.8618 3.26662 8.52135 7.54182C3.02623 11.941 0 17.8351 0 24.1385C0 30.0417 2.76668 35.7297 7.65609 40.0084C6.06047 43.7506 3.72899 47.1525 0.793018 50.0222L0 50.7949V56.3163H2.70712C7.71312 56.3157 12.6503 55.1796 17.1278 52.9979C16.6368 51.1843 16.3491 49.3241 16.2698 47.45C13.5522 49.0023 10.5755 50.0765 7.47589 50.6236Z" fill="#8FF295"/>
</svg>

<svg xmlns="http://www.w3.org/2000/svg" fill="none" viewBox="0 0 82 81"><ellipse cx="56.455" cy="24.998" fill="#354039" rx="24.761" ry="25"/><path fill="#8FF295" d="M73.125 62.995c5.164-4.485 8.088-10.463 8.088-16.667 0-6.593-3.167-12.76-8.918-17.364-5.597-4.48-13.005-6.946-20.861-6.946s-15.265 2.467-20.861 6.947c-5.75 4.604-8.918 10.77-8.918 17.363s3.167 12.759 8.918 17.363c5.596 4.48 13.005 6.947 20.86 6.947 1.047 0 2.1-.045 3.145-.135l1.784 1.508c6.148 5.191 14.009 8.049 22.143 8.05h2.707v-5.617l-.793-.772a32.8 32.8 0 0 1-7.294-10.677m-13.217 5.028-3.58-3.024-1.194.142q-1.843.22-3.7.22C38 65.361 27.07 56.823 27.07 46.328S38 27.294 51.434 27.294s24.364 8.539 24.364 19.034c0 5.228-2.677 10.11-7.537 13.745l-1.56 1.166.72 1.984a37.9 37.9 0 0 0 6.41 11.183 28.7 28.7 0 0 1-13.923-6.383"/><path fill="#8FF295" d="M7.476 50.624a36.1 36.1 0 0 0 5.89-10.393l.713-1.974-1.558-1.165c-4.583-3.428-7.107-8.028-7.107-12.953 0-9.898 10.323-17.95 23.01-17.95 9.335 0 17.389 4.358 20.994 10.602q1.005-.048 2.017-.05 2.035 0 4.033.193c-1.393-3.518-3.813-6.73-7.14-9.392C42.988 3.267 35.92.912 28.425.912S13.862 3.267 8.52 7.542C3.026 11.94 0 17.835 0 24.139c0 5.903 2.767 11.59 7.656 15.87A31 31 0 0 1 .793 50.021L0 50.795v5.521h2.707c5.006 0 9.943-1.136 14.42-3.318a25.3 25.3 0 0 1-.857-5.548 27.3 27.3 0 0 1-8.794 3.174"/></svg>
